X: 20512
M: 2/4
L: 1/16
K: F
c2 |\
f2ff f2c2 | f2ff f2c2 | f2c2A2F2 | c2ccc2 a2 |\
g2g2g2a2 | g2g2g2a2 | b2b2 a2a2 | (a4 g2) :|
|: (AB) |\
c2ccc2c2 | c4 dcBA | B2BBB2B2 | B4 cBAG |:\


